X:55
T:Orevalsen
R:Waltz
O:Sweden
Z:1998 by John Chambers <jc@trillian.mit.edu>
M:3/4
L:1/8
Q:1/4=150
K:G
%P:A
CB,A, \
|: "G"G,2 B,2 C2 | D3 EDC | B,2 D2 G2 | B3 BdB \
| "C"c2 E2 G2 | "D7"F3 ABA | "G"G2 F2 E2 | DE DC B,A, |
 "G"G,2 B,2 C2 | D3 EDC | B,2 D2 G2 | B3 BdB \
| "C"c2 E2 G2 | "D7"F3 DEF | "G"G3 AGF | G6 :|
%P:B
|: "C"e2 c2 e2 | g3 gfe | "G"d2 B2 G2 | DE DC B,2 \
| "D7"AB c2 A2 | F4 c2 | "G"Bc d2 c2 | Bc BA G2 |
 "C"e2 c2 e2 | g3 gfe | "G"d2 B2 G2 | DE DC B,2 \
| "D7"AB c2 A2 | "D7"F3 DEF | "G"G3 AGF | G6 :|

